fl/LB.svg

<svg viewBox="0 0 21 15" version="1.1" xmlns="http://www.w3.org/2000/svg" height="1em" width="1em">
  <defs>
    <linearGradient x1="50%" y1="0%" x2="50%" y2="100%" id="a">
      <stop stop-color="#FFFFFF" offset="0%"/>
      <stop stop-color="#F0F0F0" offset="100%"/>
    </linearGradient>
    <linearGradient x1="50%" y1="0%" x2="50%" y2="100%" id="b">
      <stop stop-color="#F03340" offset="0%"/>
      <stop stop-color="#EB212E" offset="100%"/>
    </linearGradient>
    <linearGradient x1="50%" y1="0%" x2="50%" y2="100%" id="c">
      <stop stop-color="#1FC065" offset="0%"/>
      <stop stop-color="#17A555" offset="100%"/>
    </linearGradient>
  </defs>
  <g stroke="none" stroke-width="1" fill="none" fill-rule="evenodd">
    <g>
      <rect fill="url(#a)" x="0" y="0" width="21" height="15"/>
      <rect fill="url(#b)" x="0" y="0" width="21" height="4"/>
      <rect fill="url(#b)" x="0" y="11" width="21" height="4"/>
      <rect fill="url(#a)" x="0" y="4" width="21" height="7"/>
      <path d="M9.65024853,9.34975144 C9.84341093,9.15658903 9.84179687,8.84179683 9.64731216,8.64731212 L9.85268784,8.85268779 C9.65790372,8.65790368 9.28596497,8.55350871 9.01585579,8.62103601 L7.98414421,8.8789639 C7.71675875,8.94581027 7.68457031,8.86157222 7.90472984,8.69645257 L9.09527016,7.80354734 C9.31879628,7.63590275 9.27866983,7.49999995 8.99216843,7.49999995 L8.50783157,7.49999995 C8.22736394,7.49999995 8.19907951,7.4004602 8.44386482,7.27806754 L9.55613518,6.72193236 C9.80127495,6.59936248 9.77866983,6.49999995 9.49216843,6.49999995 L9.00783157,6.49999995 C8.72736394,6.49999995 8.68457031,6.36157222 8.90472984,6.19645257 L10.0952702,5.30354734 C10.3187963,5.13590275 10.6845703,5.13842769 10.9047298,5.30354734 L12.0952702,6.19645257 C12.3187963,6.36409716 12.2786698,6.49999995 11.9921684,6.49999995 L11.5078316,6.49999995 C11.2273639,6.49999995 11.1990795,6.59953971 11.4438648,6.72193236 L12.5561352,7.27806754 C12.8012749,7.40063743 12.7786698,7.49999995 12.4921684,7.49999995 L12.0078316,7.49999995 C11.7273639,7.49999995 11.6845703,7.63842769 11.9047298,7.80354734 L13.0952702,8.69645257 C13.3187963,8.86409716 13.285965,8.9464912 13.0158558,8.8789639 L11.9841442,8.62103601 C11.7167587,8.55418964 11.3417969,8.65820308 11.1473122,8.85268779 L11.3526878,8.64731212 C11.1579037,8.84209623 11.15625,9.15624995 11.3497515,9.34975143 L11.6502485,9.65024848 C11.8434109,9.84341089 11.7842474,9.99999996 11.504611,9.99999996 L9.49538898,9.99999999 C9.2217932,10 9.15625,9.84374999 9.34975147,9.65024851 L9.65024853,9.34975144 Z" fill="url(#c)"/>
    </g>
  </g>
</svg>

<svg viewBox="0 0 21 15" xmlns="http://www.w3.org/2000/svg" height="1em" width="1em">
  <defs>
    <linearGradient x1="50%" y1="0%" x2="50%" y2="100%" id="a">
      <stop stop-color="#FFF" offset="0%"/>
      <stop stop-color="#F0F0F0" offset="100%"/>
    </linearGradient>
    <linearGradient x1="50%" y1="0%" x2="50%" y2="100%" id="b">
      <stop stop-color="#F03340" offset="0%"/>
      <stop stop-color="#EB212E" offset="100%"/>
    </linearGradient>
    <linearGradient x1="50%" y1="0%" x2="50%" y2="100%" id="c">
      <stop stop-color="#1FC065" offset="0%"/>
      <stop stop-color="#17A555" offset="100%"/>
    </linearGradient>
  </defs>
  <g fill="none" fill-rule="evenodd">
    <path fill="url(#a)" d="M0 0h21v15H0z"/>
    <path fill="url(#b)" d="M0 0h21v4H0zm0 11h21v4H0z"/>
    <path fill="url(#a)" d="M0 4h21v7H0z"/>
    <path d="M9.65 9.35a.497.497 0 0 0-.003-.703l.206.206a.972.972 0 0 0-.837-.232l-1.032.258c-.267.067-.3-.017-.08-.183l1.191-.892c.224-.168.184-.304-.103-.304h-.484c-.28 0-.309-.1-.064-.222l1.112-.556c.245-.123.223-.222-.064-.222h-.484c-.28 0-.323-.138-.103-.304l1.19-.892a.719.719 0 0 1 .81 0l1.19.892c.224.168.184.304-.103.304h-.484c-.28 0-.309.1-.064.222l1.112.556c.245.123.223.222-.064.222h-.484c-.28 0-.323.138-.103.304l1.19.892c.224.168.191.25-.08.183l-1.03-.258a.977.977 0 0 0-.838.232l.206-.206a.496.496 0 0 0-.003.703l.3.3c.193.193.134.35-.145.35h-2.01c-.273 0-.339-.156-.145-.35l.3-.3Z" fill="url(#c)"/>
  </g>
</svg>
